X:1
T:The Jolly Ploughboy
B:A Selection of some less known Folk-Songs, Vol 2, Ed Cyril Winn
Z:R Vaughan Williams
M:3/4
L:1/8
K:G
D2 |G2 G2 AA |F2 G2 A2 |F2 G2 E2 |D4
w:Come all you jol-ly plough boys and list-en to me
D2 |G2 A2 (Bc) |d2 B2 G2 |A4
w:I'll sing in the_ praise of you all,
(Bc) |d2 B2 A2 |B2 c2 d2 |B2 A2 G2 |D4
w:For_ if we don't la-bour how shall we get bread?
D2 |G2 A2 c2 |c2 B2 A2 |(G6|G2) |]
w:Let's sing and be mer-ry with-al_
